dist/image/form/phone.svg

<svg width="18" height="18" fill="none" xmlns="http://www.w3.org/2000/svg"><path d="M17.01 12.38c-1.23 0-2.42-.2-3.53-.56a.977.977 0 00-1.01.24l-1.57 1.97c-2.83-1.35-5.48-3.9-6.89-6.83l1.95-1.66c.27-.28.35-.67.24-1.02-.37-1.11-.56-2.3-.56-3.53 0-.54-.45-.99-.99-.99H1.19C.65 0 0 .24 0 .99 0 10.28 7.73 18 17.01 18c.71 0 .99-.63.99-1.18v-3.45c0-.54-.45-.99-.99-.99z" fill="#FF8A00"/></svg>

<svg width="18" height="18" viewBox="0 0 18 18" fill="none" xmlns="http://www.w3.org/2000/svg">
<path d="M17.01 12.38C15.78 12.38 14.59 12.18 13.48 11.82C13.13 11.7 12.74 11.79 12.47 12.06L10.9 14.03C8.07 12.68 5.42 10.13 4.01 7.2L5.96 5.54C6.23 5.26 6.31 4.87 6.2 4.52C5.83 3.41 5.64 2.22 5.64 0.99C5.64 0.45 5.19 0 4.65 0H1.19C0.65 0 0 0.24 0 0.99C0 10.28 7.73 18 17.01 18C17.72 18 18 17.37 18 16.82V13.37C18 12.83 17.55 12.38 17.01 12.38Z" fill="#FF8A00"/>
</svg>
